assets/images/gicon.svg

<svg width="21" height="20" viewBox="0 0 21 20" fill="none" xmlns="http://www.w3.org/2000/svg">
<g clip-path="url(#clip0_1986_21415)">
<path d="M20.305 10.2312C20.305 9.55141 20.2499 8.86797 20.1323 8.19922H10.7V12.05H16.1015C15.8773 13.292 15.1571 14.3907 14.1026 15.0888V17.5874H17.325C19.2174 15.8457 20.305 13.2736 20.305 10.2312Z" fill="#4285F4"/>
<path d="M10.7 20.0017C13.397 20.0017 15.6715 19.1162 17.3287 17.5876L14.1062 15.089C13.2096 15.699 12.0522 16.0444 10.7037 16.0444C8.0948 16.0444 5.88279 14.2843 5.08911 11.918H1.76373V14.4938C3.46133 17.8706 6.91898 20.0017 10.7 20.0017Z" fill="#34A853"/>
<path d="M5.08546 11.9163C4.66657 10.6743 4.66657 9.32947 5.08546 8.0875V5.51172H1.76376C0.345428 8.33737 0.345428 11.6664 1.76376 14.4921L5.08546 11.9163Z" fill="#FBBC04"/>
<path d="M10.7 3.95805C12.1257 3.936 13.5036 4.47247 14.5361 5.45722L17.3911 2.60218C15.5833 0.904587 13.1839 -0.0287217 10.7 0.000673888C6.91898 0.000673888 3.46133 2.13185 1.76373 5.51234L5.08543 8.08813C5.87544 5.71811 8.09113 3.95805 10.7 3.95805Z" fill="#EA4335"/>
</g>
<defs>
<clipPath id="clip0_1986_21415">
<rect width="20" height="20" fill="white" transform="translate(0.5)"/>
</clipPath>
</defs>
</svg>

<svg width="21" height="20" fill="none" xmlns="http://www.w3.org/2000/svg"><g clip-path="url(#a)"><path d="M20.305 10.231c0-.68-.055-1.363-.173-2.032H10.7v3.851h5.402a4.629 4.629 0 0 1-2 3.039v2.498h3.223c1.892-1.741 2.98-4.313 2.98-7.356Z" fill="#4285F4"/><path d="M10.7 20.002c2.697 0 4.972-.886 6.629-2.414l-3.223-2.499c-.896.61-2.054.955-3.402.955-2.61 0-4.821-1.76-5.615-4.126H1.764v2.576a10.001 10.001 0 0 0 8.936 5.508Z" fill="#34A853"/><path d="M5.085 11.916a5.99 5.99 0 0 1 0-3.829V5.513H1.764a10.009 10.009 0 0 0 0 8.98l3.321-2.576Z" fill="#FBBC04"/><path d="M10.7 3.958a5.434 5.434 0 0 1 3.836 1.5l2.855-2.856A9.61 9.61 0 0 0 10.7.001a9.998 9.998 0 0 0-8.936 5.511l3.321 2.576c.79-2.37 3.006-4.13 5.615-4.13Z" fill="#EA4335"/></g><defs><clipPath id="a"><path fill="#fff" transform="translate(.5)" d="M0 0h20v20H0z"/></clipPath></defs></svg>
